app/images/dist/facebook.svg

<svg width="40" height="40" viewBox="0 0 40 40" fill="none" xmlns="http://www.w3.org/2000/svg">
<path fill-rule="evenodd" clip-rule="evenodd" d="M19.9352 39.973C8.92246 39.973 -0.00390625 31.0257 -0.00390625 19.9885C-0.00390625 8.95118 8.92246 0.00390625 19.9352 0.00390625C30.947 0.00390625 39.8734 8.95118 39.8734 19.9885C39.8734 31.0257 30.947 39.973 19.9352 39.973ZM19.9352 1.36027C9.66973 1.36027 1.34882 9.70027 1.34882 19.9885C1.34882 30.2766 9.66973 38.6166 19.9352 38.6166C30.1997 38.6166 38.5206 30.2766 38.5206 19.9885C38.5206 9.70027 30.1997 1.36027 19.9352 1.36027ZM22.9234 17.3639L22.6897 19.7448H20.8852C20.8852 22.7639 20.8852 26.4821 20.8852 26.4821H18.2106C18.2106 26.4821 18.2106 22.8003 18.2106 19.7448H16.9388V17.3639H18.2106V15.8239C18.2106 14.7212 18.7106 12.9975 20.9097 12.9975L22.8897 13.0057V15.3166C22.8897 15.3166 21.6861 15.3166 21.4525 15.3166C21.2179 15.3166 20.8852 15.4394 20.8852 15.9648V17.3639H22.9234Z" fill="white"/>
</svg>

<svg width="40" height="40" fill="none" xmlns="http://www.w3.org/2000/svg"><path fill-rule="evenodd" clip-rule="evenodd" d="M19.935 39.973c-11.013 0-19.939-8.947-19.939-19.985C-.004 8.951 8.922.004 19.936.004c11.011 0 19.937 8.947 19.937 19.984 0 11.038-8.926 19.985-19.938 19.985zm0-38.613C9.67 1.36 1.35 9.7 1.35 19.988c0 10.289 8.32 18.629 18.586 18.629 10.265 0 18.586-8.34 18.586-18.628C38.52 9.7 30.2 1.36 19.935 1.36zm2.988 16.004l-.233 2.38h-1.805v6.738h-2.674v-6.737h-1.272v-2.381h1.272v-1.54c0-1.103.5-2.826 2.699-2.826l1.98.008v2.31h-1.438c-.234 0-.567.123-.567.649v1.399h2.038z" fill="#fff"/></svg>
